images/icons/location.svg

<svg width="38" height="39" viewBox="0 0 38 39" fill="none" xmlns="http://www.w3.org/2000/svg">
<g clip-path="url(#clip0)">
<path d="M19 0.5C11.4115 0.5 5.23779 6.67366 5.23779 14.2621C5.23779 23.6796 17.5536 37.5049 18.0779 38.0889C18.5704 38.6375 19.4303 38.6365 19.922 38.0889C20.4463 37.5049 32.7621 23.6796 32.7621 14.2621C32.762 6.67366 26.5884 0.5 19 0.5ZM19 35.3627C14.8551 30.4392 7.7161 20.7255 7.7161 14.2622C7.7161 8.04018 12.778 2.97831 19 2.97831C25.2219 2.97831 30.2838 8.04018 30.2838 14.2622C30.2837 20.7257 23.1459 30.4376 19 35.3627Z" fill="#512DA8"/>
<path d="M19.0001 7.33792C15.1821 7.33792 12.076 10.444 12.076 14.262C12.076 18.08 15.1822 21.1861 19.0001 21.1861C22.818 21.1861 25.924 18.08 25.924 14.262C25.924 10.444 22.818 7.33792 19.0001 7.33792ZM19.0001 18.7078C16.5486 18.7078 14.5544 16.7135 14.5544 14.262C14.5544 11.8106 16.5487 9.81623 19.0001 9.81623C21.4514 9.81623 23.4458 11.8106 23.4458 14.262C23.4458 16.7135 21.4514 18.7078 19.0001 18.7078Z" fill="#512DA8"/>
</g>
<defs>
<clipPath id="clip0">
<path d="M0 0.5H38V38.5H0V0.5Z" fill="white"/>
</clipPath>
</defs>
</svg>

<svg width="38" height="39" fill="none" xmlns="http://www.w3.org/2000/svg"><g clip-path="url(#clip0)" fill="#512DA8"><path d="M19 .5C11.412.5 5.238 6.674 5.238 14.262c0 9.418 12.316 23.243 12.84 23.827a1.24 1.24 0 001.844 0c.524-.584 12.84-14.41 12.84-23.827C32.762 6.674 26.588.5 19 .5zm0 34.863c-4.145-4.924-11.284-14.637-11.284-21.1C7.716 8.04 12.778 2.977 19 2.977S30.284 8.04 30.284 14.262c0 6.464-7.138 16.176-11.284 21.1z"/><path d="M19 7.338a6.932 6.932 0 00-6.924 6.924A6.932 6.932 0 0019 21.186a6.932 6.932 0 006.924-6.924A6.932 6.932 0 0019 7.338zm0 11.37a4.45 4.45 0 01-4.446-4.446A4.45 4.45 0 0119 9.816a4.45 4.45 0 014.446 4.446A4.45 4.45 0 0119 18.708z"/></g><defs><clipPath id="clip0"><path d="M0 .5h38v38H0V.5z" fill="#fff"/></clipPath></defs></svg>
